images/catalog/place-1.svg

<svg width="32" height="32" viewBox="0 0 32 32" fill="none" xmlns="http://www.w3.org/2000/svg">
<rect width="32" height="32" fill="white"/>
<path d="M27.3793 18.143C27.4529 18.2166 27.5529 18.258 27.6571 18.258C27.7613 18.258 27.8612 18.2166 27.9349 18.143C28.0085 18.0693 28.0499 17.9694 28.0499 17.8652V16.8469C28.0499 16.7427 28.0085 16.6428 27.9349 16.5691C27.8612 16.4954 27.7613 16.454 27.6571 16.454C27.5529 16.454 27.4529 16.4954 27.3793 16.5691C27.3056 16.6428 27.2642 16.7427 27.2642 16.8469V17.8652C27.2642 17.9694 27.3056 18.0693 27.3793 18.143Z" fill="#2B2A28" stroke="#2B2A28" stroke-width="0.1"/>
<path d="M5.37143 28.05H26.6286C27.0056 28.05 27.3671 27.9002 27.6337 27.6337C27.9002 27.3671 28.05 27.0056 28.05 26.6286V20.2651C28.05 20.1609 28.0086 20.061 27.9349 19.9874C27.8613 19.9137 27.7613 19.8723 27.6571 19.8723C27.553 19.8723 27.453 19.9137 27.3794 19.9874C27.3057 20.061 27.2643 20.1609 27.2643 20.2651V26.6286C27.2643 26.7972 27.1973 26.9589 27.0781 27.0781C26.9589 27.1973 26.7972 27.2643 26.6286 27.2643H5.37143C5.20283 27.2643 5.04113 27.1973 4.92191 27.0781C4.80269 26.9589 4.73571 26.7972 4.73571 26.6286V5.37143C4.73571 5.20283 4.80269 5.04113 4.92191 4.92191C5.04113 4.80269 5.20283 4.73571 5.37143 4.73571H26.6286C26.7972 4.73571 26.9589 4.80269 27.0781 4.92191C27.1973 5.04113 27.2643 5.20283 27.2643 5.37143V11.0491C27.2643 11.1533 27.3057 11.2533 27.3794 11.3269C27.453 11.4006 27.553 11.442 27.6571 11.442C27.7613 11.442 27.8613 11.4006 27.9349 11.3269C28.0086 11.2533 28.05 11.1533 28.05 11.0491V5.37143C28.05 4.99444 27.9002 4.6329 27.6337 4.36633C27.3671 4.09976 27.0056 3.95 26.6286 3.95H5.37143C4.99444 3.95 4.6329 4.09976 4.36633 4.36633C4.09976 4.6329 3.95 4.99444 3.95 5.37143V26.6286C3.95 27.0056 4.09976 27.3671 4.36633 27.6337C4.6329 27.9002 4.99444 28.05 5.37143 28.05Z" fill="#2B2A28" stroke="#2B2A28" stroke-width="0.1"/>
<path d="M27.3793 14.7247C27.4529 14.7984 27.5529 14.8398 27.6571 14.8398C27.7613 14.8398 27.8612 14.7984 27.9349 14.7247C28.0085 14.651 28.0499 14.5511 28.0499 14.4469V13.4492C28.0499 13.345 28.0085 13.2451 27.9349 13.1714C27.8612 13.0977 27.7613 13.0563 27.6571 13.0563C27.5529 13.0563 27.4529 13.0977 27.3793 13.1714C27.3056 13.2451 27.2642 13.345 27.2642 13.4492V14.4469C27.2642 14.5511 27.3056 14.651 27.3793 14.7247Z" fill="#2B2A28" stroke="#2B2A28" stroke-width="0.1"/>
<path d="M17.2308 14.2137L17.2308 14.2137C17.1759 14.2687 17.1385 14.3386 17.1233 14.4148C17.1082 14.491 17.1159 14.57 17.1457 14.6418C17.1754 14.7136 17.2257 14.7749 17.2903 14.8181C17.3549 14.8612 17.4309 14.8843 17.5085 14.8843H17.5086C17.6127 14.8843 17.7127 14.8429 17.7863 14.7692C17.7863 14.7692 17.7863 14.7692 17.7863 14.7692L23.8206 8.73493L23.8206 8.73493L23.8212 8.73431C23.8928 8.66022 23.9324 8.56098 23.9315 8.45797C23.9306 8.35497 23.8893 8.25643 23.8164 8.1836C23.7436 8.11076 23.645 8.06944 23.542 8.06855C23.439 8.06765 23.3398 8.10725 23.2657 8.17881L23.2657 8.1788L23.2651 8.17942L17.2308 14.2137Z" fill="#2B2A28" stroke="#2B2A28" stroke-width="0.1"/>
<path d="M23.2651 11.9108C23.3388 11.9845 23.4387 12.0259 23.5429 12.0259C23.6471 12.0259 23.747 11.9845 23.8207 11.9108C23.8944 11.8371 23.9358 11.7372 23.9358 11.633V8.45711C23.9358 8.35292 23.8944 8.253 23.8207 8.17932C23.747 8.10565 23.6471 8.06426 23.5429 8.06426H20.367C20.2628 8.06426 20.1629 8.10565 20.0892 8.17932C20.0156 8.253 19.9742 8.35292 19.9742 8.45711C19.9742 8.56131 20.0156 8.66123 20.0892 8.73491C20.1629 8.80858 20.2628 8.84997 20.367 8.84997H23.1501V11.633C23.1501 11.7372 23.1914 11.8371 23.2651 11.9108Z" fill="#2B2A28" stroke="#2B2A28" stroke-width="0.1"/>
<path d="M8.17929 23.2651L8.17928 23.2651C8.12436 23.32 8.08695 23.39 8.0718 23.4662C8.05665 23.5424 8.06443 23.6214 8.09416 23.6932C8.12389 23.765 8.17423 23.8263 8.23882 23.8695C8.30341 23.9126 8.37934 23.9357 8.45703 23.9357L8.45704 23.8857C8.54797 23.8857 8.63516 23.8496 8.69944 23.7853L8.7348 23.8206L8.7348 23.8206L14.7691 17.7863L14.7691 17.7863L14.7697 17.7857C14.8413 17.7116 14.8809 17.6124 14.88 17.5094C14.8791 17.4064 14.8377 17.3078 14.7649 17.235C14.6921 17.1621 14.5935 17.1208 14.4905 17.1199C14.3875 17.119 14.2883 17.1586 14.2142 17.2302L14.2142 17.2302L14.2136 17.2308L8.17929 23.2651Z" fill="#2B2A28" stroke="#2B2A28" stroke-width="0.1"/>
<path d="M8.45687 23.9357H11.6328C11.7369 23.9357 11.8369 23.8943 11.9105 23.8206C11.9842 23.747 12.0256 23.647 12.0256 23.5429C12.0256 23.4387 11.9842 23.3387 11.9105 23.2651C11.8369 23.1914 11.7369 23.15 11.6328 23.15H8.84973V20.367C8.84973 20.3154 8.83957 20.2643 8.81982 20.2166C8.80008 20.169 8.77114 20.1257 8.73466 20.0892C8.69818 20.0527 8.65487 20.0238 8.60721 20.004C8.55955 19.9843 8.50846 19.9741 8.45687 19.9741C8.40528 19.9741 8.35419 19.9843 8.30653 20.004C8.25887 20.0238 8.21556 20.0527 8.17908 20.0892C8.1426 20.1257 8.11366 20.169 8.09392 20.2166C8.07418 20.2643 8.06401 20.3154 8.06401 20.367V23.5429C8.06401 23.647 8.1054 23.747 8.17908 23.8206C8.25275 23.8943 8.35268 23.9357 8.45687 23.9357Z" fill="#2B2A28" stroke="#2B2A28" stroke-width="0.1"/>
</svg>

<svg width="32" height="32" fill="none" xmlns="http://www.w3.org/2000/svg"><path fill="#fff" d="M0 0h32v32H0z"/><path d="M27.38 18.143a.393.393 0 0 0 .67-.278v-1.018a.393.393 0 0 0-.786 0v1.018c0 .104.042.204.115.278z" fill="#2B2A28" stroke="#2B2A28" stroke-width=".1"/><path d="M5.371 28.05H26.63a1.422 1.422 0 0 0 1.421-1.421v-6.364a.392.392 0 1 0-.786 0v6.364a.636.636 0 0 1-.635.635H5.37a.636.636 0 0 1-.635-.635V5.37a.636.636 0 0 1 .635-.635H26.63a.636.636 0 0 1 .635.635v5.678a.393.393 0 1 0 .786 0V5.371a1.422 1.422 0 0 0-1.421-1.421H5.37A1.421 1.421 0 0 0 3.95 5.371V26.63a1.421 1.421 0 0 0 1.421 1.421z" fill="#2B2A28" stroke="#2B2A28" stroke-width=".1"/><path d="M27.38 14.725a.393.393 0 0 0 .67-.278v-.998a.393.393 0 0 0-.786 0v.998c0 .104.042.204.115.278zM17.23 14.214a.394.394 0 0 0 .279.67.393.393 0 0 0 .277-.115l6.035-6.034a.393.393 0 0 0-.555-.556l-6.035 6.035z" fill="#2B2A28" stroke="#2B2A28" stroke-width=".1"/><path d="M23.265 11.91a.393.393 0 0 0 .67-.277V8.457a.393.393 0 0 0-.392-.393h-3.176a.393.393 0 0 0 0 .786h2.783v2.783c0 .104.041.204.115.278zM8.18 23.265a.393.393 0 0 0 .277.67v-.05c.091 0 .178-.035.242-.1l.036.036 6.034-6.035a.393.393 0 0 0-.555-.556l-6.035 6.035z" fill="#2B2A28" stroke="#2B2A28" stroke-width=".1"/><path d="M8.457 23.936h3.176a.393.393 0 0 0 0-.786H8.85v-2.783a.393.393 0 0 0-.786 0v3.176a.393.393 0 0 0 .393.393z" fill="#2B2A28" stroke="#2B2A28" stroke-width=".1"/></svg>
